!!!OTL: I HOB ENK A HAEUSERL AM ROAN
!!!ARE: Europa, Mitteleuropa, Deutschland, Mitteleuropa, Schweiz
!!!SCT: Z0133
!!!YEM: Copyright 1995, estate of Helmut Schaffrath.
**kern
*ICvox
*Ivox
*M6/8
*k[f#]
*G:
{8d
=1
8d
8g
8g
8.f#
16e
8f#
=2
4g
4.r}
{8g
=3
8.cc
16cc
8cc
8b
8a
8b
=4
4cc
4.r}
{8b
=5
8b
8dd
8dd
8dd
8dd
16r
16cc
=6
8dd
8cc#
8cc
8cc
8cc}
{8cc
=7
8.cc
16b
8cc
8.ee
16dd
8cc
=8
4b
4.r}
{8b
=9
8.a
16g#
8a
8cc
8b
8a
=10
4g
4.r}
==
!!!AGN: Erzaehlung, lustige Romanze
!!!ONB: ESAC (Essen Associative Code) Database: ZUCCAL
!!!AMT: compound duple
!!!AIN: vox
!!!EED: Helmut Schaffrath
!!!EEV: 1.0
*-
